X:1
P:Drunk at Night and Dry in the Morning
C:Neil Gow Collection #591
C:arranged by T. Traub 4-7-03
R:Waltz
M:3/4
K:A
L: 1/8
|: EAB|"A"c4 B2|"A/G#" c>BA>B c2|"A/F#" E2 A2 B/c/d|"E"d2 c2 B2|"F#m" c>BA>B c2|"C#m" E>DC>D E2|"D" F2 A2 "E"G2|"A"A6 :|
"A" A2 ef/e/ c2| "A/G#" A2 ef/e/ c2| "A/F#" A2 e2 e2| "A/E" e3 d c2|"A" A2 ef/e/ c2| "A/G#" A2 ef/e/ c2| "A/F#" A2 c2 c2| "A/E" c3 B A2|
"A" c>BA>B c2|"C#m" E>DC>D E2|"D" F2 A2 B/c/d|"Fdim"d2 c2 B2 |"F#m" c>BA>B c2|"C#m" E>DC>D E2|"D" F2 A2 "E"G2|"A"A4|
A,B,/C/|"D"D2 FD FD|"A"C2 EC EC|"A"A,2 A2 Bc/d/|"E"d2 c2 B2|"D"D2 FD FD|"A"C2 EC EC|"A"A,2 A2 "E"G2|"A"A4| 
A,B,/C/|"D"D2 FD FD|"A"C2 EC EC|"A"A,2 A2 Bc/d/|"Fdim"d2 c2 B2|"F#m" c>BA>B c2|"C#m" E>DC>D E2|"D" F2 A2 "E"G2|"A"A4|
"D"A2 fA fA|"A"A2 eA eA|"A"A2 e2 e2 |"C#m"e3 d c2|"D"A2 fA fA|"A"A2 eA eA|"F#m"A2 c2 c2 |"A"c3 B A3|
"A" c>BA>B c2|"C#m" E>DC>D E2|"D" F2 A2 B/c/d|"Fdim"d2 c2 B2 |"F#m" c>BA>B c2|"C#m" E>DC>D E2|"D" F2 A2 "E"G2|"A"A4|]
